img/xnview.svg

<svg xmlns="http://www.w3.org/2000/svg" width="64" height="64" version="1.1" viewBox="0 0 64 64">
 <path d="m 23.357082,8.0082511 c -0.27899,0.0169 -0.561222,0.060992 -0.842148,0.1357201 -2.247409,0.5978276 -3.571583,2.8774358 -2.96939,5.1085588 l 1.632344,6.053181 c -1.416071,0.837041 -2.728678,1.798204 -3.950984,2.836583 l -4.650953,-4.818207 c -1.610063,-1.667963 -4.2962985,-1.633296 -5.9415171,0 -1.6452183,1.633296 -1.6104079,4.228114 0,5.895746 l 4.6974341,4.864349 c -2.0764027,2.310445 -3.9812375,4.473007 -5.8704255,5.890314 -1.9485898,1.42035 -1.94859,4.972134 0,6.392485 C 13.800279,45.517853 19.399849,58.036112 31.9973,57.999922 l 0.0054,0 c 12.597451,0.0362 18.197021,-12.482069 26.535857,-17.632941 1.94859,-1.420351 1.94859,-4.972135 0,-6.392485 -1.888434,-1.416725 -3.792294,-3.578243 -5.867692,-5.887602 l 4.700169,-4.867061 c 1.610428,-1.667612 1.645218,-4.26245 0,-5.895746 -1.64522,-1.633296 -4.32869,-1.667934 -5.938784,0 l -4.656359,4.823635 c -1.215115,-1.032609 -2.517137,-1.991678 -3.923634,-2.825723 l 1.637812,-6.069468 C 45.092259,11.021408 43.768088,8.7418002 41.520678,8.1439726 39.273269,7.5461452 36.979753,8.863436 36.377562,11.094559 l -1.460089,5.21183 c -0.934325,-0.127388 -1.904494,-0.200744 -2.917439,-0.200868 l -0.0028,0 c -1.000153,1.2e-4 -1.95569,0.07386 -2.879161,0.198154 L 27.658051,11.094558 C 27.131132,9.1423267 25.310007,7.8899355 23.357082,8.0082511 Z" style="opacity:0.2"/>
 <path style="fill:#ef9202" d="m 23.357082,7.0082497 c -0.27899,0.0169 -0.561222,0.060992 -0.842148,0.1357201 -2.247409,0.5978276 -3.571583,2.8774352 -2.96939,5.1085582 l 1.632344,6.053181 c -1.416071,0.837041 -2.728678,1.798203 -3.950984,2.836583 l -4.650953,-4.818207 c -1.610063,-1.667962 -4.2962985,-1.633296 -5.9415171,0 -1.6452183,1.633297 -1.6104079,4.228114 0,5.895746 l 4.6974341,4.864349 c -2.0764027,2.310445 -3.9812375,4.473007 -5.8704255,5.890314 -1.9485898,1.42035 -1.94859,4.972134 0,6.392485 C 13.800279,44.51785 19.399849,57.03611 31.9973,56.99992 l 0.0054,0 c 12.597451,0.0362 18.197021,-12.48207 26.535857,-17.632941 1.94859,-1.420351 1.94859,-4.972135 0,-6.392485 -1.888434,-1.416725 -3.792294,-3.578243 -5.867692,-5.887602 l 4.700169,-4.867061 c 1.610428,-1.667612 1.645218,-4.262449 0,-5.895746 -1.64522,-1.633296 -4.32869,-1.667934 -5.938784,0 L 46.775891,21.14772 C 45.560776,20.11511 44.258754,19.156043 42.852257,18.321998 L 44.490069,12.25253 C 45.092259,10.021407 43.768088,7.7417988 41.520678,7.1439712 39.273269,6.5461438 36.979753,7.8634346 36.377562,10.094557 l -1.460089,5.211831 C 33.983148,15.178999 33.012979,15.105643 32.000034,15.10552 l -0.0028,0 c -1.000153,1.19e-4 -1.95569,0.07386 -2.879161,0.198154 L 27.658051,10.094556 C 27.131132,8.1423248 25.310007,6.8899341 23.357082,7.0082497 Z"/>
 <circle cx="32" cy="37" r="16" style="opacity:0.2"/>
 <circle style="fill:#ffffff" cx="32" cy="36" r="16"/>
 <circle cx="32" cy="36" r="10" style="fill:#ff5a2e"/>
 <path style="opacity:0.2;fill:#ffffff" d="M 23.357422 7.0078125 C 23.078432 7.0247125 22.796551 7.0698031 22.515625 7.1445312 C 20.48546 7.6845703 19.223425 9.5961529 19.439453 11.605469 C 19.660529 9.9918065 20.82739 8.5936143 22.515625 8.1445312 C 22.796551 8.0698031 23.078432 8.0247125 23.357422 8.0078125 C 25.310347 7.8894969 27.131284 9.1415185 27.658203 11.09375 L 29.117188 16.302734 C 30.040659 16.17844 30.997894 16.105588 31.998047 16.105469 L 32 16.105469 C 33.012945 16.105592 33.983644 16.179252 34.917969 16.306641 L 36.376953 11.09375 C 36.979144 8.8626273 39.274075 7.5467039 41.521484 8.1445312 C 43.20972 8.5936143 44.374627 9.9918063 44.595703 11.605469 C 44.811729 9.5961529 43.55165 7.6845703 41.521484 7.1445312 C 39.274075 6.5467039 36.979144 7.8626276 36.376953 10.09375 L 34.917969 15.306641 C 33.983644 15.179252 33.012945 15.105592 32 15.105469 L 31.998047 15.105469 C 30.997894 15.105588 30.040659 15.17844 29.117188 15.302734 L 27.658203 10.09375 C 27.131284 8.1415188 25.310347 6.8894969 23.357422 7.0078125 z M 9.6191406 15.085938 C 8.5406716 15.090271 7.4573749 15.507571 6.6347656 16.324219 C 5.6875611 17.26456 5.3143227 18.522902 5.4609375 19.740234 C 5.569061 18.859208 5.9468831 18.007117 6.6347656 17.324219 C 8.2799842 15.690923 10.966109 15.656257 12.576172 17.324219 L 17.226562 22.142578 C 18.448868 21.104198 19.761663 20.143682 21.177734 19.306641 L 20.947266 18.451172 C 19.620399 19.25471 18.381181 20.161701 17.226562 21.142578 L 12.576172 16.324219 C 11.77114 15.490238 10.69761 15.081604 9.6191406 15.085938 z M 54.388672 15.085938 C 53.31089 15.081608 52.236688 15.490252 51.431641 16.324219 L 46.775391 21.148438 C 45.627839 20.173243 44.399403 19.267447 43.082031 18.466797 L 42.851562 19.322266 C 44.25806 20.156311 45.560276 21.115828 46.775391 22.148438 L 51.431641 17.324219 C 53.041735 15.656285 55.725874 15.690923 57.371094 17.324219 C 58.057423 18.005575 58.433798 18.855471 58.542969 19.734375 C 58.687671 18.518819 58.316814 17.263086 57.371094 16.324219 C 56.548484 15.507571 55.466454 15.090267 54.388672 15.085938 z M 10.865234 27.601562 C 8.9707507 29.711501 7.2058642 31.66553 5.4609375 32.974609 C 4.3548363 33.78086 3.8991906 35.269797 4.0488281 36.669922 C 4.1628032 35.603483 4.6184489 34.588709 5.4609375 33.974609 C 7.3501255 32.557302 9.2556286 30.394429 11.332031 28.083984 L 10.865234 27.601562 z M 53.136719 27.603516 L 52.669922 28.085938 C 54.74532 30.395297 56.650629 32.557884 58.539062 33.974609 C 59.381551 34.588709 59.837197 35.603483 59.951172 36.669922 C 60.100809 35.269797 59.645164 33.78086 58.539062 32.974609 C 56.794832 31.666068 55.03028 29.712459 53.136719 27.603516 z"/>
</svg>

<svg xmlns="http://www.w3.org/2000/svg" width="64" height="64"><path d="M23.357 8.008a4.3 4.3 0 0 0-.842.136 4.16 4.16 0 0 0-2.97 5.109l1.633 6.053a28.6 28.6 0 0 0-3.951 2.836l-4.651-4.818c-1.61-1.668-4.296-1.633-5.942 0s-1.61 4.228 0 5.896l4.698 4.864c-2.077 2.31-3.981 4.473-5.87 5.89-1.95 1.42-1.95 4.973 0 6.393C13.8 45.517 19.4 58.037 31.996 58h.006C44.6 58.036 50.2 45.518 58.539 40.367c1.948-1.42 1.948-4.972 0-6.393-1.889-1.416-3.793-3.578-5.868-5.887l4.7-4.867c1.61-1.668 1.645-4.263 0-5.896s-4.329-1.668-5.939 0l-4.656 4.824a28.6 28.6 0 0 0-3.924-2.826l1.638-6.07a4.16 4.16 0 0 0-2.97-5.108 4.195 4.195 0 0 0-5.142 2.95l-1.46 5.212c-.935-.127-1.905-.2-2.918-.2h-.003c-1 0-1.955.073-2.879.198l-1.46-5.21a4.19 4.19 0 0 0-4.3-3.086" style="opacity:.2"/><path d="M23.357 7.008a4.3 4.3 0 0 0-.842.136 4.16 4.16 0 0 0-2.97 5.109l1.633 6.053a28.6 28.6 0 0 0-3.951 2.836l-4.651-4.818c-1.61-1.668-4.296-1.633-5.942 0s-1.61 4.228 0 5.896l4.698 4.864c-2.077 2.31-3.981 4.473-5.87 5.89-1.95 1.42-1.95 4.973 0 6.393C13.8 44.517 19.4 57.037 31.996 57h.006C44.6 57.036 50.2 44.518 58.539 39.367c1.948-1.42 1.948-4.972 0-6.393-1.889-1.416-3.793-3.578-5.868-5.887l4.7-4.867c1.61-1.668 1.645-4.263 0-5.896s-4.329-1.668-5.939 0l-4.656 4.824a28.6 28.6 0 0 0-3.924-2.826l1.638-6.07a4.16 4.16 0 0 0-2.97-5.108 4.195 4.195 0 0 0-5.142 2.95l-1.46 5.212c-.935-.127-1.905-.2-2.918-.2h-.003c-1 0-1.955.073-2.879.198l-1.46-5.21a4.19 4.19 0 0 0-4.3-3.086" style="fill:#ef9202"/><circle cx="32" cy="37" r="16" style="opacity:.2"/><circle cx="32" cy="36" r="16" style="fill:#fff"/><circle cx="32" cy="36" r="10" style="fill:#ff5a2e"/><path d="M23.357 7.008a4.3 4.3 0 0 0-.841.137 4.15 4.15 0 0 0-3.077 4.46 4.17 4.17 0 0 1 3.077-3.46q.421-.112.841-.137a4.19 4.19 0 0 1 4.301 3.086l1.46 5.209c.923-.125 1.88-.197 2.88-.198H32c1.013 0 1.984.074 2.918.202l1.459-5.213c.602-2.231 2.897-3.547 5.144-2.95a4.17 4.17 0 0 1 3.075 3.461 4.15 4.15 0 0 0-3.075-4.46c-2.247-.598-4.542.718-5.144 2.949l-1.459 5.213A22 22 0 0 0 32 15.105h-.002c-1 0-1.957.073-2.88.198l-1.46-5.21a4.19 4.19 0 0 0-4.3-3.085M9.62 15.086a4.26 4.26 0 0 0-2.984 1.238A4.08 4.08 0 0 0 5.46 19.74a4.07 4.07 0 0 1 1.174-2.416c1.645-1.633 4.331-1.668 5.941 0l4.65 4.819a28.6 28.6 0 0 1 3.952-2.836l-.23-.856a29 29 0 0 0-3.721 2.692l-4.65-4.819a4.06 4.06 0 0 0-2.958-1.238m44.77 0a4.06 4.06 0 0 0-2.957 1.238l-4.657 4.824a29 29 0 0 0-3.693-2.681l-.23.855a28.6 28.6 0 0 1 3.923 2.826l4.657-4.824c1.61-1.668 4.294-1.633 5.94 0a4.07 4.07 0 0 1 1.171 2.41c.145-1.215-.226-2.47-1.172-3.41a4.26 4.26 0 0 0-2.982-1.238M10.865 27.602c-1.894 2.11-3.66 4.064-5.404 5.373-1.106.806-1.562 2.295-1.412 3.695.114-1.067.57-2.081 1.412-2.695 1.89-1.418 3.795-3.58 5.871-5.891zm42.272.002-.467.482c2.075 2.31 3.98 4.472 5.87 5.889.842.614 1.297 1.628 1.411 2.695.15-1.4-.306-2.89-1.412-3.695-1.744-1.309-3.509-3.263-5.402-5.371" style="opacity:.2;fill:#fff"/></svg>
